X: 286
T: Xiao taqing
L: 1/8
M: 3/4
K: F
c c/ f/ d/ c/ A/ G/ [I:setbarnb 1]| 
c c/ f/ d/ c/ A/ G/ | 
F> G f d/ c/ | 
c/ A/ G/ F/ G z | 
B c B c | 
A F G G/ G/ | 
A F G G/ G/ | 
A F G G/ G/ | 
A F G G/ G/ | 
A> c A c | 
A F G G/ G/ | 
F A G G/ G/ | 
A F G G/ G/ | 
A F G G/ G/ | 
A> A c A | 
c A c A | 
c> A c> A G F | 
[M:2/4]F D C D | 
c2c E | 
G> A F D | 
C4 |]

@@@ Tune index: 9160
